X:1
T:James Gibb editions
T:Ave verum corpus - Peñalosa
T:#
%%score [ 1 2 3 4 ]
L:1/8
Q:1/4=108
M:4/4
K:F
V:1 treble nm="Soprano " snm="S"
V:2 treble nm="Alto" snm="A"
V:3 treble-8 nm="Tenor" snm="T"
V:4 bass nm="Bass" snm="B"
V:1
"^Ave verum corpus""^Francisco de Peρalosa \n(1470-1528)" F8 | F8 | A4 G4 | A2 A2 B4 | A8 | %5
w: A-|ve|ver- um|cor- pus na-|tum|
 B2 B2 A2 (G2- | GF) F4 E2 |[M:4/4] F8 | A4 A4 | G4 G4 | z4 A2 (c2- ||[M:3/2] c2 =B A B4) B4 || %12
w: de Ma- ri- a|* * Vir- gi-|ne.|Ve- re|pas- sum,|im- mo\-|* * * * la-|
[M:4/4] c8 | A2 A2 G4- | G4 F4- | F4 (E4 | D2 C2) D4 | C8 | z8 | z8 | z8 | G8 | A4 G4 | F8 | %24
w: tum|in cru- ce|* pro|* ho\-|* * mi-|ne.||||Un-|da flu-|xit|
 B2 B2 A2 (G2- | G F F4) E2 | F8 | z2 A4 G2 | F4 z2 B2- | B2 A2 G4 | z2 c4 B2 | A8 | z2 G2 G2 G2 | %33
w: san- gui- ne, san\-|* * * gui-|ne.|O dul-|cis, O|* pi- e,|O Je-|su,|Fi- li Ma-|
 G4 ^F4 | B2 G2 (A2 G!courtesy!=F) | E2 (G2- G F F2- | F2 E2) F4- | F8 | F8 |] %39
w: ri- ae,|mi- se- re\- * *|re no\- * * *|* * bis.|||
V:2
 C8 | D8 | C4 E4 | z2 F2 D2 E2 | F8 | F2 F2 F2 D2- | D2 (A,=B,) C4 |[M:4/4] C8 | F4 F4 | E4 E4 | %10
w: A-|ve|ver- um|cor- pus na-|tum|de Ma- ri- a|* Vir\- * gi-|ne.|Ve- re|pas- sum,|
 z4 E4 ||[M:3/2] (E2 F2 G4) G4 ||[M:4/4] E8 | F2 F2 D4 | E4 D4 | C4 C4 | z8 | G8 | E4 F2 E2- | %19
w: im-|mo\- * * la-|tum|in cru- ce|pro ho-|mi- ne.||Cu-|jus la- tus|
 ED D4 ^C2 | D4 z4 | E8 | F4 D4 | D8 | F2 F2 F2 (D2- | D2 A,2) C4 | C8 | z2 F4 D2 | D4 z2 F2- | %29
w: * per- fo- ra-|tum|un-|da flu-|xit|san- gui- ne, san\-|* * gui-|ne.|O dul-|cis, O|
 F2 F2 D4 | z2 E4 D2 | F8 | z2 D2 D2 D2 | _E4 D4 | D4 (F2 C2) | C4 (D2 C2) | (C4 D4- | D8) | C8 |] %39
w: * pi- e,|O Je-|su,|Fi- li Ma-|ri- ae,|mi- se\- *|re- re *|no\- *||bis.|
V:3
 A8 | B8 | A4 c4 | c2 c2 B4 | c8 | d2 d2 c2 (B2- | BA) F2 G4 |[M:4/4][K:treble-8] A8 | c4 c4 | %9
w: A-|ve|ver- um|cor- pus na-|tum|de Ma- ri- a|* * Vir- gi-|ne.|Ve- re|
 c4 c4 | z4 c4 ||[M:3/2] c4 d8 ||[M:4/4] c8 | c2 c2 B4 | c4 A4 | A4 G4 | (B2 c4) =B2 | c8- | %18
w: pas- sum,|im-|mo- la-|tum|in cru- ce|pro ho-|mi- ne.|Cu\- * jus|la\-|
 c4 A2 c2- | cB (A4 G2) | A4 z4 | c8 | c4 B4 | A8 | d2 d2 c2 (B2- | B A/ G/ F2) G4 | F8 | %27
w: * tus per\-|* fo- ra\- *|tum|un-|da flu-|xit|san- gui- ne, san\-|* * * * gui-|ne.|
 z2 c4 B2 | A4 z2 d2- | d2 c2 B4 | z2 G4 B2 | c8 | z2 B2 B2 B2 | c4 A4 | z2 B2 c4 | c4 (B2 A2) | %36
w: O dul-|cis, O|* pi- e,|O Je-|su,|Fi- li Ma-|ri- ae,|mi- se-|re- re *|
 (G4 F3 G | A4 B4) | A8 |] %39
w: no\- * *||bis.|
V:4
 F,8 | B,,8 | F,4 C,4 | F,2 F,2 G,4 | F,8 | B,,2 B,,2 F,2 (G,2- | G,D,) F,2 C,4 |[M:4/4] F,8 | %8
w: A-|ve|ver- um|cor- pus na-|tum|de Ma- ri- a|* * Vir- gi-|ne.|
 F,4 F,4 | C,4 C,4 | z4 A,4 ||[M:3/2] A,4 G,8 ||[M:4/4] C,8 | F,2 F,2 G,4 | C,4 D,4 | F,4 C,4 | %16
w: Ve- re|pas- sum,|im-|mo- la-|tum|in cru- ce|pro ho-|mi- ne.|
 (G,2 A,2) G,4 | C,8- | C,4 D,2 C,2- | C,2 D,2 E,4 | D,4 z4 | C,8 | F,4 G,4 | D,8 | %24
w: Cu\- * jus|la\-|* tus per\-|* fo- ra-|tum|un-|da flu-|xit|
 B,,2 B,,2 F,2 (G,2 | D,2 F,2) C,4 | F,8 | z2 F,4 G,2 | D,4 z2 B,,2- | B,,2 F,2 G,4 | z2 C,4 G,2 | %31
w: san- gui- ne, san\-|* * gui-|ne.|O dul-|cis, O|* pi- e,|O Je-|
 F,8 | z2 G,2 G,2 G,2 | C,4 D,4 | G,4 F,2 (E,D,) | C,4 z4 | (C,4 F,4 | D,4 B,,4) | F,8 |] %39
w: su,|Fi- li Ma-|ri- ae,|mi- se- re\- *|re|no\- *||bis.|

